!!!!SEGMENT: pl-wn--sd-xvi-qu-273--137_gomolka-mikolaj--siedzac-po-niskich-brzegach-babilonskiej-wody.krn
!!!cenid: 15xx:342
!!!COM: Gomółka, Mikołaj
!!!COM-rismid: pe30013343
!!!CDT: ~1535->1591/04/30
!!!CNT: Polish
!!!GTL: Melodiae na psalterz polski
!!!OTL: CXXXVII. Siedząc po niskich brzegach babilońskiej wody
!!!PDT: 1580
!!!AGN: Sacred
!!!SMS-siglum: PL-Wn
!!!SMS-shelfmark: SD XVI.Qu.273
!!!SMS-shelfwork: 137 G
!!!NIFC-rismid:
!!!ONB-nifc: Melodiae na psalterz polski
**kern	**text	**kern	**text	**kern	**text	**kern	**text
*part4	*part4	*part3	*part3	*part2	*part2	*part1	*part1
*staff4	*staff4	*staff3	*staff3	*staff2	*staff2	*staff1	*staff1
*clefF4	*	*clefC4	*	*clefC3	*	*clefC1	*
*k[]	*	*k[]	*	*k[]	*	*k[]	*
*a:	*	*a:	*	*a:	*	*a:	*
*M4/2	*	*M4/2	*	*M4/2	*	*M4/2	*
*met(C|)	*	*met(C|)	*	*met(C|)	*	*met(C|)	*
=1	=1	=1	=1	=1	=1	=1	=1
1AA	Sie-	1C	Sie-	1A	Sie-	1e	Sie-
2AA	-dӡąc	2C	-dӡąc	2A	-dӡąc	2e	-dӡąc
2C	po	2C	po	1A	po	2e	po
=2-	=2	=2	=2	=2	=2	=2	=2
1BB	niʃ-	1D	niʃ-	.	.	1d	niʃ-
.	.	.	.	2G	niʃ-	.	.
2AA	-ťich	2E	-ťich	2A	-ťich	2c#X	-ťich
2AA	brӡe-	2A/	brӡe-	2c/	brӡe-	2e	brӡe-
=3-	=3	=3	=3	=3	=3	=3	=3
2E	-gách	2G#X	-gách	4B	-gách	2e	-gách
.	.	.	.	4c/	.	.	.
2D/	Bá-	2A/	Bá-	2d	Bá-	2f	Bá-
2GG	-bi-	2B	-bi	2d	-bi	2.g/	-bi
4C	.	2.c	.	2G	.	.	.
4D/	.	.	.	.	.	4f	.
=4-	=4	=4	=4	=4	=4	=4	=4
2E	loń-	.	.	2G	lon-	2e	lon-
.	.	4B	lon-	.	.	.	.
2F	-ʃťiéy	1A	-ʃťiéy	2A	-ʃťiéy	2d	-ʃťiéy
1E	wo-	.	.	1B	wo-	1e	wo-
.	.	2G#X	wo-	.	.	.	.
=5-	=5	=5	=5	=5	=5	=5	=5
2AA	-dy/	2/A	-dy/	2c#X	-dy/	2e	-dy/
2AA	A	2c	A	2e	A	2a	A
!!LO:PB:g=original
2AA	ná	2c	ná	2e	ná	2.cc	ná
2C	pięť-	2.G	pięť	2e	pięť-	.	.
.	.	.	.	.	.	4cc	pięť-
=6-	=6	=6	=6	=6	=6	=6	=6
2C	-né	.	.	2g	-né	2g/	-né
.	.	4A/	né	.	.	.	.
1GG	Si-	4B	Si	2g	Si-	1dd	Si-
.	.	4c	.	.	.	.	.
.	.	2d	oń	2.g	-oń	.	.
2G	-oń-	2B	.	.	.	2dd	-oń-
.	.	.	.	4f	.	.	.
=7-	=7	=7	=7	=7	=7	=7	=7
2.A	-ʃťié	2.c	ʃťié	2e	ʃťié	2cc	-ʃťié
.	.	.	.	2e	wʃpo-	2a	wʃpo-
4G	wʃpo-	4B	wʃpo-	.	.	.	.
1.F	-miná	2A/	-mi	2.f	-mi-	2.cc	-mi
.	.	2A/	.	.	.	.	.
.	.	.	.	4e	.	4b	.
=8-	=8	=8	=8	=8	=8	=8	=8
.	.	2.c	ná-	2.c/	ná-	2a	ná-
2E	iąc	.	.	.	.	2g#X/	-iąc
.	.	4B	-iąc	4d	-iąc	.	.
2AA	gro-	2A/	gro-	4e	gro	2a	gro-
.	.	.	.	4d	.	.	.
2E	-dy:	2G#X	-dy:	2c#X	dy:	2b	-dy:
=9-	=9	=9	=9	=9	=9	=9	=9
2E	Co	2G	Co	2e	Co	2b	Co
2E	nam	2G	nam	2e	nam	2b	nam
2AA	in-	2A/	in-	2e	in-	2.cc	in-
4A	-ʃᴣé	1c	-ʃᴣégo	1e	-ʃᴣégo	.	.
4G	.	.	.	.	.	4b	-ʃᴣé-
=10-	=10	=10	=10	=10	=10	=10	=10
4F	go	.	.	.	.	4a	-go
4E	.	.	.	.	.	4g	.
2F	cӡy-	4B	cӡy	2d	cӡy-	2a	cӡy-
.	.	4A	.	.	.	.	.
2E	-nić/	2B	nić/	2e	-nić/	2g#X/	-nić/
!!LO:PB:g=original
2E	ie-	2.G	ie	2e	ie-	2b	ie-
=11-	=11	=11	=11	=11	=11	=11	=11
!LO:N:vis=2	!	!	!	!	!	!	!
1E	-dno_pła-	.	.	1e	-dno_pła	2b	-dno
.	.	4A/	dno	.	.	.	.
.	.	2B	pła-	.	.	2g#X/	pła-
1F	-ťáć	1A	-ťáć	2e	ťáć	1.a	-ťáć
.	.	.	.	4d	.	.	.
.	.	.	.	4c	.	.	.
=12-	=12	=12	=12	=12	=12	=12	=12
1F	ʃmut-	1A	ʃmut-	4d	.	.	.
.	.	.	.	2e	ʃmut	.	.
.	.	.	.	.	.	4g#X/	ʃmut
.	.	.	.	4d	.	4f	.
2E	-nie/	2B	-nie/	2e	nie/	2g#X/	nie/
1E	po	1G	po	1e	po	1b	po
=13-	=13	=13	=13	=13	=13	=13	=13
.	.	.	.	.	.	.	.
2E	wie-	2G	wie-	2e	wie-	2b	wie-
1C	-ʃᴣaw-	1c	-ʃᴣaw-	1g	-ʃᴣaw-	1ee	-ʃᴣaw-
=14-	=14	=14	=14	=14	=14	=14	=14
2F	-ʃᴣy	2c	-ʃᴣy	2f	-ʃᴣy	2cc	-ʃᴣy
1F	po	2c	po	1f	po	1a	po
.	.	1A	wiérʒ-	.	.	.	.
2D/	wiérʒ-	.	.	2f	wiérʒ-	2a	wiérʒ-
=15-	=15	=15	=15	=15	=15	=15	=15
2E	-bach	2G#X	-bach	2g	-bach	2e	-bach
1AA	nie	1A	nie	1e	nie	1cc	nie
2AA	pot-	2A/	pot-	2e	pot-	2cc	pot-
=16-	=16	=16	=16	=16	=16	=16	=16
2D/	-rӡeb-	2.F	-rӡeb-	2.f	-rӡeb-	2a	-rӡeb-
2D/	-né	.	.	.	.	2a	-né
.	.	4G	-né	4e	-né	.	.
1D	lut-	1A	lut-	4d	lut	1f	lut-
.	.	.	.	4c	.	.	.
.	.	.	.	2d	.	.	.
=17-	=17	=17	=17	=17	=17	=17	=17
!	!	!	!	!	!	!'ogonek po lewej stronie'	!
!!LO:N:vis=00
0E	-nie.	0G#X/	-nie.	0B/	nie.	0e/	-nie.
=	=	=	=	=	=	=	=
*-	*-	*-	*-	*-	*-	*-	*-
!!!RDF**kern: l = terminal long
!!!system-decoration: s1,s2,s3,s4
!!!ENC:Anna Matuszewska
!!!END:2020-02-22
!!!URL-scan: https://polona.pl/item/melodiae-na-psalterz-polski,Nzk3MTM4ODQ/319 Scan on Polona
!!!IIIF: https://polona.pl/iiif/item/Nzk3MTM4ODQ/manifest.json
